X:1
T:Coming, Yes, We’re Coming
T:Coming, Yes, We’re Coming
T:William Howard Doane
T:Frances Jane (Fanny) Crosby, 1875
T:Public Domain Courtesy of the Cyber Hymnal™
T:Public Domain Courtesy of the Cyber Hymnal™
C:William Howard Doane
Z:Public Domain
Z:Courtesy of the Cyber Hymnal™
%%score ( 1 2 ) ( 3 4 )
L:1/8
Q:1/4=88
M:4/4
K:E
V:1 treble 
V:2 treble 
V:3 bass 
V:4 bass 
V:1
 E | [EG][EG][EG][EG] [EG]2 [B,E][B,E] | [DF][DF][DF][EG] [FA]2 ([EG][DF]) | %3
w: 1.~How|sweet the call of mer- cy, In-|vit- ing ev- ery heart To *|
w: 2.~O|may His Spir- it teach us To|know and do the right; To *|
w: 3.~Our|Sav- ior loves the child- ren, On|them His hands He laid, With- *|
 [EG][EG][EG][FA] [GB]2 [Ge][Ac] | [GB][Ac][GB][EG] [DF]3 E | [EG][EG][EG][EG] [EG]2 [B,E][B,E] | %6
w: come and love their Sav- ior, Ere|youth- ful days de- part; ’Tis|in the Ho- ly Bi- ble, These|
w: walk as He com- mands us, That|we may see the light; The|bless- èd light that shin- eth A-|
w: in His arms He held them, And|blessed them while He prayed; And|still His mer- cy calls them; Just|
 [DF][DF][DF][EG] [FA]2 ([EG][DF]) | [EG][FA][FB][Ge] (ec)[FA][CF] | [B,E][B,E][EG][DF] E4 | %9
w: pre- cious words we see: “For- *|bid ye not the child- * ren, But|let them come to Me.”|
w: long the nar- row way, And *|al- ways grow- eth bright- * er, Un-|to the per- fect day.|
w: now we hear Him say: “I *|want your hearts, dear child- * ren, I|want your love to- day.”|
"^Refrain" [GB][GB][EG][Ge] [GB]2 [EG]2 |: [FA][FA][DF][Ac] [GB]2 [EG]2 | %11
w: ||
w: Com- ing, yes, we’re com- ing,|Com- ing, yes, we’re com- ing,|
w: ||
 [GB][GB][EG][Ge] [GB]2 [EG][EG] | [GB][FA][EG][DF] E2 z2"^Repeat softly" | x8 :| %14
w: |||
w: Com- ing, yes, we’re com- ing, Dear|Sav- ior, to Thy fold.||
w: |||
V:2
 E | x8 | x8 | x8 | x7 E | x8 | x8 | x4 A2 x2 | x4 E4 | x8 |: x8 | x8 | x4 E2 x2 | x8 :| %14
V:3
 [E,G,] | [E,B,][E,B,][E,B,][E,B,] [E,B,]2 [E,G,][E,G,] | %2
w: ~|~ ~ ~ ~ ~ ~ ~|
 [B,,B,][B,,B,][B,,B,][B,,B,] [B,,B,]2 [B,,B,]2 | [E,B,][E,B,][E,B,][E,B,] [E,E]2 [E,B,][E,E] | %4
w: ~ ~ ~ ~ ~ ~|~ ~ ~ ~ ~ ~ ~|
 [E,E][E,E][E,E][E,B,] [B,,B,]3 [E,G,] | [E,B,][E,B,][E,B,][E,B,] [E,B,]2 [E,G,][E,G,] | %6
w: ~ ~ ~ ~ ~ ~|~ ~ ~ ~ ~ ~ ~|
 [B,,B,][B,,B,][B,,B,][B,,B,] [B,,B,]2 [B,,B,]2 | [E,B,][E,B,][E,B,][E,B,] (CE)[A,,C][A,,A,] | %8
w: ~ ~ ~ ~ ~ ~|~ ~ ~ ~ ~ * ~ ~|
 [B,,G,][B,,G,][B,,B,][B,,A,] x4 | [E,G,]4 x4 |: [E,E][E,E] z2 [E,E]2 [E,B,]2 | %11
w: ~ ~ ~ ~|~|Com- ing, com- ing,|
 [B,,B,][B,,B,] z2 [E,B,]2 [E,B,]2 | [E,E][E,E] z2 [E,E]2 [E,B,][E,B,] | %13
w: ~ ~ Com- ing,|com- ing, * * *|
 [B,,B,][B,,B,][B,,B,][B,,A,] [E,G,]2 z2 :| %14
w: |
V:4
 x | x8 | x8 | x8 | x8 | x8 | x8 | x4 A,2 x2 | x8 | x8 |: x8 | x8 | x8 | x8 :| %14

